test/build_templates/generated_templates/E-M10/OLYMPUSM.14-42mmF3.5-5.6IIR/template.orf.pp3
[Version]
AppVersion=5.7
Version=346

[Exposure]
Black=200
CurveMode=WeightedStd

[HLRecovery]

[Retinex]

[Local Contrast]

[Channel Mixer]

[Black & White]

[Luminance Curve]
Enabled=false
Brightness=10
Contrast=20
Chromaticity=10
LCurve=1;0;0;0.20999999999999999;0.16;0.68999999999999995;0.72999999999999998;1;1;

[Sharpening]
Enabled=false
Contrast=0
Method=usm
Radius=0.5
BlurRadius=0.20000000000000001
Amount=248
Threshold=20;80;2000;1200;
OnlyEdges=false

[Vibrance]

[SharpenEdge]

[SharpenMicro]

[White Balance]
Enabled=true
Setting=Camera

[Color appearance]

[Impulse Denoising]

[Defringing]

[Dehaze]

[Directional Pyramid Denoising]

[EPD]

[FattalToneMapping]

[Shadows & Highlights]

[Crop]
Enabled=false
FixedRatio=true
Orientation=As Image
Guide=Rule of thirds

[Coarse Transformation]

[Common Properties for Transformations]

[Rotation]

[Distortion]

[LensProfile]
LcMode=lfmanual
LFCameraMake=Olympus Imaging Corp.
LFCameraModel=E-M10
LFLens=Olympus Olympus M.Zuiko Digital ED 14-42mm f/3.5-5.6 II R


[Perspective]

[Gradient]

[PCVignette]

[CACorrection]

[Vignetting Correction]

[Resize]

[PostResizeSharpening]

[Color Management]

[Wavelet]

[Directional Pyramid Equalizer]
Enabled=false
Mult0=1
Mult1=1.8
Mult2=1.8
Mult3=2
Mult4=1.2
Mult5=1

[HSV Equalizer]

[SoftLight]

[Film Simulation]

[RGB Curves]

[ColorToning]

[RAW]
HotPixelFilter=true
DeadPixelFilter=true

[RAW Bayer]

[RAW X-Trans]

[MetaData]

[Film Negative]

[IPTC]
