test/create_sidecar/templates/DMC-FZ50/template.jpg.pp3
[Version]
AppVersion=346


Version=346

[Exposure]

[HLRecovery]

[Retinex]

[Local Contrast]

[Channel Mixer]

[Black & White]

[Luminance Curve]

[Sharpening]

[Vibrance]

[SharpenEdge]

[SharpenMicro]

[White Balance]

[Color appearance]

[Impulse Denoising]

[Defringing]

[Dehaze]

[Directional Pyramid Denoising]

[EPD]

[FattalToneMapping]

[Shadows & Highlights]

[Crop]
Enabled=false
FixedRatio=true
Orientation=As Image
Guide=Rule of thirds

[Coarse Transformation]

[Common Properties for Transformations]

[Rotation]

[Distortion]

[LensProfile]
LcMode=lfauto

[Perspective]

[Gradient]

[PCVignette]

[CACorrection]

[Vignetting Correction]

[Resize]

[PostResizeSharpening]

[Color Management]

[Wavelet]

[Directional Pyramid Equalizer]

[HSV Equalizer]

[SoftLight]

[Film Simulation]

[RGB Curves]

[ColorToning]

[RAW]
HotPixelFilter=true
DeadPixelFilter=true

[RAW Bayer]

[RAW X-Trans]

[MetaData]
Mode=1

[Film Negative]

[IPTC]
