test/create_sidecar/input/templates/E-M10/template.orf.pp3
[Version]
AppVersion=5.7
Version=346

[Exposure]
CurveMode=WeightedStd
Black=200

[HLRecovery]

[Retinex]

[Local Contrast]

[Channel Mixer]

[Black & White]

[Luminance Curve]
LCurve=1;0;0;0.20999999999999999;0.16;0.68999999999999995;0.72999999999999998;1;1;
Chromaticity=10
Contrast=20
Brightness=10
Enabled=false

[Sharpening]
OnlyEdges=false
Threshold=20;80;2000;1200;
Amount=248
BlurRadius=0.20000000000000001
Radius=0.5
Method=usm
Contrast=0
Enabled=false

[Vibrance]

[SharpenEdge]

[SharpenMicro]

[White Balance]
Setting=Camera
Enabled=true

[Color appearance]

[Impulse Denoising]

[Defringing]

[Dehaze]

[Directional Pyramid Denoising]

[EPD]

[FattalToneMapping]

[Shadows & Highlights]

[Crop]
Guide=Rule of thirds
Orientation=As Image
FixedRatio=true
Enabled=false

[Coarse Transformation]

[Common Properties for Transformations]

[Rotation]

[Distortion]

[LensProfile]
LcMode=lfauto

[Perspective]

[Gradient]

[PCVignette]

[CACorrection]

[Vignetting Correction]

[Resize]

[PostResizeSharpening]

[Color Management]

[Wavelet]

[Directional Pyramid Equalizer]
Mult5=1
Mult4=1.2
Mult3=2
Mult2=1.8
Mult1=1.8
Mult0=1
Enabled=false

[HSV Equalizer]

[SoftLight]

[Film Simulation]

[RGB Curves]

[ColorToning]

[RAW]
DeadPixelFilter=true
HotPixelFilter=true

[RAW Bayer]

[RAW X-Trans]

[MetaData]
Mode=1

[Film Negative]

[IPTC]
